img/icon-sw.svg

<svg width="256" height="256" viewBox="0 0 256 256" fill="none" xmlns="http://www.w3.org/2000/svg">
<path d="M228.073 21H27.8701V149.959H228.073V21ZM116.584 119.597C113.292 123.249 107.611 123.614 103.895 120.379C101.718 118.501 98.1082 109.946 95.0821 100.973C104.532 102.799 113.611 105.251 115.787 107.129C119.504 110.311 119.875 115.945 116.584 119.597ZM141.005 107.859C143.075 105.825 151.941 102.799 161.285 100.451C158.843 109.633 155.764 118.345 153.747 120.379C152.048 122.049 149.765 122.988 147.376 122.988C144.987 122.988 142.704 122.049 141.005 120.379C139.306 118.71 138.35 116.467 138.35 114.119C138.35 111.772 139.306 109.529 141.005 107.859ZM128.476 97.5822C120.831 97.5822 114.619 91.4785 114.619 83.9664C114.619 79.0105 121.68 65.6555 128.476 54.6482C137.979 69.9333 142.279 80.7842 142.279 83.9664C142.332 91.5307 136.121 97.5822 128.476 97.5822ZM216.924 139.003H133.997V128.883C137.713 132.117 142.385 133.891 147.376 133.891C152.738 133.891 157.834 131.856 161.604 128.1C163.568 126.17 166.647 121.997 170.682 108.068C172.753 100.869 174.133 94.4521 174.186 94.1913L175.938 86.0009L167.603 87.7225C167.338 87.7746 160.808 89.131 153.481 91.1655C153.056 91.2699 152.632 91.4264 152.207 91.5307C153.003 89.1832 153.428 86.627 153.428 84.0186C153.428 82.0362 153.428 76.0369 143.022 57.6217C138.138 48.9619 133.307 41.7106 133.095 41.3976L128.476 34.4071L123.804 41.3976C123.591 41.7106 118.76 48.9097 113.876 57.6217C103.47 76.0369 103.47 82.0362 103.47 84.0186C103.47 86.7313 103.948 89.3397 104.744 91.7916C103.948 91.5829 103.099 91.4264 102.196 91.2177C94.7635 89.6005 88.1804 88.6615 87.8618 88.6615L79.4736 87.4616L81.7034 95.4955C81.7565 95.7563 83.5616 102.069 86.1099 109.111C91.0472 122.779 94.3919 126.744 96.4624 128.57C100.285 131.909 105.063 133.526 109.788 133.526C114.46 133.526 119.079 131.961 122.795 128.831V139.003H39.019V31.9552H216.924V139.003Z" fill="#1ED261"/>
<path d="M225.845 155.175H29.3592L2.70801 219.498H253.399L225.845 155.175ZM36.8449 166.13H218.466L236.623 208.49H19.2721L36.8449 166.13Z" fill="#1ED261"/>
<path d="M256 223.879H0V234.834H256V223.879Z" fill="#1ED261"/>
<path d="M191.229 121.996L200.944 131.491L205.191 127.317L195.476 117.823L200.838 112.554L177.638 104.572L185.92 127.265L191.229 121.996Z" fill="#1ED261"/>
<path d="M165.589 191.171H90.3604V200.874H165.589V191.171Z" fill="#1ED261"/>
<path d="M54.8447 173.591H42.8994V184.547H54.8447V173.591Z" fill="#1ED261"/>
<path d="M72.621 173.591H60.6758V184.547H72.621V173.591Z" fill="#1ED261"/>
<path d="M90.4032 173.591H78.458V184.547H90.4032V173.591Z" fill="#1ED261"/>
<path d="M108.14 173.591H96.1943V184.547H108.14V173.591Z" fill="#1ED261"/>
<path d="M125.93 173.591H113.984V184.547H125.93V173.591Z" fill="#1ED261"/>
<path d="M143.72 173.591H131.774V184.547H143.72V173.591Z" fill="#1ED261"/>
<path d="M161.45 173.591H149.505V184.547H161.45V173.591Z" fill="#1ED261"/>
<path d="M179.232 173.591H167.287V184.547H179.232V173.591Z" fill="#1ED261"/>
<path d="M197.015 173.591H185.069V184.547H197.015V173.591Z" fill="#1ED261"/>
<path d="M214.745 173.591H202.8V184.547H214.745V173.591Z" fill="#1ED261"/>
<path d="M46.8798 190.598H34.9346V201.553H46.8798V190.598Z" fill="#1ED261"/>
<path d="M64.6698 190.598H52.7246V201.553H64.6698V190.598Z" fill="#1ED261"/>
<path d="M203.391 190.598H191.445V201.553H203.391V190.598Z" fill="#1ED261"/>
<path d="M185.181 190.598H173.235V201.553H185.181V190.598Z" fill="#1ED261"/>
<path d="M221.12 190.598H209.175V201.553H221.12V190.598Z" fill="#1ED261"/>
<path d="M82.7148 190.598H70.7695V201.553H82.7148V190.598Z" fill="#1ED261"/>
</svg>

<svg width="256" height="256" fill="none" xmlns="http://www.w3.org/2000/svg"><path d="M228.073 21H27.87v128.959h200.203V21zm-111.489 98.597c-3.292 3.652-8.973 4.017-12.689.782-2.177-1.878-5.787-10.433-8.813-19.406 9.45 1.826 18.529 4.278 20.705 6.156 3.717 3.182 4.088 8.816.797 12.468zm24.421-11.738c2.07-2.034 10.936-5.06 20.28-7.408-2.442 9.182-5.521 17.894-7.538 19.928a9.082 9.082 0 01-12.742 0c-1.699-1.669-2.655-3.912-2.655-6.26 0-2.347.956-4.59 2.655-6.26zm-12.529-10.277c-7.645 0-13.857-6.103-13.857-13.616 0-4.956 7.061-18.31 13.857-29.318 9.503 15.285 13.803 26.136 13.803 29.318.053 7.565-6.158 13.616-13.803 13.616zm88.448 41.421h-82.927v-10.12a20.223 20.223 0 0013.379 5.008c5.362 0 10.458-2.035 14.228-5.791 1.964-1.93 5.043-6.103 9.078-20.032 2.071-7.199 3.451-13.616 3.504-13.877l1.752-8.19-8.335 1.721c-.265.053-6.795 1.409-14.122 3.444-.425.104-.849.26-1.274.365a23.482 23.482 0 001.221-7.512c0-1.983 0-7.982-10.406-26.397-4.884-8.66-9.715-15.911-9.927-16.224l-4.619-6.99-4.672 6.99c-.213.313-5.044 7.512-9.928 16.224-10.406 18.415-10.406 24.414-10.406 26.397 0 2.712.478 5.32 1.274 7.773-.796-.21-1.645-.366-2.548-.574-7.433-1.618-14.016-2.556-14.334-2.556l-8.388-1.2 2.23 8.034c.053.26 1.858 6.573 4.406 13.615 4.937 13.668 8.282 17.633 10.352 19.459 3.823 3.339 8.601 4.956 13.326 4.956 4.672 0 9.291-1.565 13.007-4.695v10.172H39.019V31.955h177.905v107.048zM225.845 155.175H29.359L2.708 219.498h250.691l-27.554-64.323zm-189 10.955h181.621l18.157 42.36H19.273l17.572-42.36zM256 223.879H0v10.955h256v-10.955z" fill="#1ED261"/><path d="M191.229 121.996l9.715 9.495 4.247-4.174-9.715-9.494 5.362-5.269-23.2-7.982 8.282 22.693 5.309-5.269zM165.589 191.171H90.36v9.703h75.229v-9.703zM54.845 173.591H42.899v10.956h11.946v-10.956zM72.621 173.591H60.676v10.956H72.62v-10.956zM90.403 173.591H78.458v10.956h11.945v-10.956zM108.14 173.591H96.194v10.956h11.946v-10.956zM125.93 173.591h-11.946v10.956h11.946v-10.956zM143.72 173.591h-11.946v10.956h11.946v-10.956zM161.45 173.591h-11.945v10.956h11.945v-10.956zM179.232 173.591h-11.945v10.956h11.945v-10.956zM197.015 173.591h-11.946v10.956h11.946v-10.956zM214.745 173.591H202.8v10.956h11.945v-10.956zM46.88 190.598H34.935v10.955H46.88v-10.955zM64.67 190.598H52.725v10.955H64.67v-10.955zM203.391 190.598h-11.946v10.955h11.946v-10.955zM185.181 190.598h-11.946v10.955h11.946v-10.955zM221.12 190.598h-11.945v10.955h11.945v-10.955zM82.715 190.598H70.769v10.955h11.946v-10.955z" fill="#1ED261"/></svg>
